!!!!SEGMENT: pl-kk--kk-i-15--015_asola-giovanni-matteo--surrexit-pastor-bonus.krn
!!!cenid: 16xx:1132
!!!COM: Asola, Giovanni Matteo
!!!COM-rismid: pe20000387
!!!CDT: <=1532-1609/10/01
!!!CNT: Italian
!!!OTL: Surrexit pastor bonus
!!!PDT:
!!!AGN: Sacred
!!!SMS-siglum: PL-Kk
!!!SMS-shelfmark: Kk.I.15
!!!SMS-shelfwork: 015 W
!!!SMS-variant:
!!!SMS-altvar:
!!!NIFC-rismid: 1001147290
!!!URL-scan: http://repozytorium.nifc.pl/skany/pl-kk-nut--i-15
!!!ONB-nifc: UWAGA: C (skan 0010), A (skan 0028), T (skan 0045), B (skan 0063). Następny motet: Resurrexit Christus
**kern	**text	**kern	**text	**kern	**text	**kern	**text
*part4	*part4	*part3	*part3	*part2	*part2	*part1	*part1
*staff4	*staff4	*staff3	*staff3	*staff2	*staff2	*staff1	*staff1
*group1	*	*group1	*	*group1	*	*group1	*
*I"Baſso	*	*I"Tenore.	*	*I"Alto	*	*I"Canto.	*
*I'B	*	*I'T	*	*I'A	*	*I'S	*
*clefF3	*	*clefC3	*	*clefC3	*	*clefC2	*
*k[b-]	*	*k[b-]	*	*k[b-]	*	*k[b-]	*
*M2/1	*	*M2/1	*	*M2/1	*	*M2/1	*
*met(C|)	*	*met(C|)	*	*met(C|)	*	*met(C|)	*
*all\right	*	*all\right	*	*all\right	*	*all\right	*
=1-	=1-	=1-	=1-	=1-	=1-	=1-	=1-
!LO:TX:t=P:problem:przy kluczu BB- B-	!	!LO:TX:t=P:problem:kreska pseudotaktowa	!	!	!	!LO:TX:t=P:problem:przy kluczu B- b-	!
1C	Sur-	1r	.	00r	.	00r	.
1.F	-re-	1F	Sur-	.	.	.	.
=2-	=2-	=2-	=2-	=2-	=2-	=2-	=2-
.	.	1.c	-re-	.	.	.	.
!LO:TX:t=P:problem:kreska pseudotaktowa	!	!	!	!	!	!	!
2E/	-xit	.	.	.	.	.	.
2F/	Pa-	.	.	.	.	.	.
*2\right	*	*	*	*	*	*	*
!	!	!LO:TX:t=P:problem:kreska pseudotaktowa	!	!	!	!	!
2G\	-stor	2B-/	-xit	.	.	.	.
=3-	=3-	=3-	=3-	=3-	=3-	=3-	=3-
*lig	*	*	*	*	*	*	*
!	!	!	!	!	!	!LO:TX:t=P:problem:kreska pseudotaktowa	!
1A	bo-	2c/	Pa-	00r	.	0r	.
.	.	2c/	-stor	.	.	.	.
*col	*	*	*	*	*	*	*
2.G\	.	1d	bo-	.	.	.	.
*Xlig	*	*	*	*	*	*	*
4F/	.	.	.	.	.	.	.
*Xcol	*	*	*	*	*	*	*
=4-	=4-	=4-	=4-	=4-	=4-	=4-	=4-
!	!	!LO:TX:t=P:problem:kreska pseudotaktowa	!	!	!	!	!
2E/	.	1c,<	-nus	.	.	2r	.
!	!	!	!	!	!	!LO:TX:t=P:problem:kreska pseudotaktowa	!
2F/	.	.	.	.	.	2c/	Sur-
*	*	*	*ij	*	*	*	*
1D	.	1F	Sur-	.	.	1.f	-re-
=5-	=5-	=5-	=5-	=5-	=5-	=5-	=5-
!LO:TX:t=P:problem:kreska pseudotaktowa	!	!	!	!LO:TX:t=P:problem:kreska pseudotaktowa	!	!	!
1C	-nus	2c/	-re-	0r	.	.	.
!	!	!LO:TX:t=P:problem:kreska pseudotaktowa	!	!	!	!LO:TX:t=P:problem:kreska pseudotaktowa	!
.	.	2c/	-xit	.	.	2e/	-xit
*	*ij	*2\right	*	*	*	*2\right	*
2rC	.	2d\	Pa-	.	.	2f\	Pa-
2C/	Sur-	2e\	-stor	.	.	2g\	-stor
=6-	=6-	=6-	=6-	=6-	=6-	=6-	=6-
*	*	*lig	*	*	*	*	*
!	!	!	!	!	!	!LO:TX:t=P:problem:kreska pseudotaktowa	!
1F	-re-	1f	bo-	2r	.	1a	bo-
.	.	.	.	2F/	Sur-	.	.
!LO:TX:t=P:problem:kreska pseudotaktowa	!	!LO:TX:t=P:problem:kreska pseudotaktowa	!	!	!	!LO:TX:t=P:problem:kreska pseudotaktowa	!
1C	-xit	1e	.	1.c	-re-	1g	-nus
*	*	*Xlig	*	*	*	*	*
=7-	=7-	=7-	=7-	=7-	=7-	=7-	=7-
1G	Pa-	2d,<\	-nus	.	.	2r	.
*	*	*	*Xij	*	*	*	*ij
!	!	!	!	!LO:TX:t=P:problem:kreska pseudotaktowa	!	!	!
.	.	2.d\	Pa-	2B-/	-xit	2g\	Sur-
1A	-stor	.	.	2c/	Pa-	2e/	-re-
!	!	!LO:SIC:v:t=custos c	!	!	!	!	!
.	.	4c/	.	.	.	.	.
!	!	!LO:LB:g=original	!	!	!	!LO:TX:t=P:problem:kreska pseudotaktowa	!
.	.	1c\	.	2c/	-stor	2f\	-xit
=8-	=8-	=8-	=8-	=8-	=8-	=8-	=8-
!LO:SIC:v:t=custos C	!	!	!	!	!	!	!
1G	bo-	.	.	1d	bo-	2.g\	Pa-
!	!	!LO:TX:t=P:problem:kreska pseudotaktowa	!	!	!	!	!
.	.	2B-,</	-stor	.	.	.	.
!	!	!	!	!	!	!LO:TX:t=P:problem:kreska pseudotaktowa	!
.	.	.	.	.	.	4f\	.
!LO:LB:g=original	!	!	!	!LO:TX:t=P:problem:kreska pseudotaktowa	!	!	!
2C,</	-nus	2.c/	bo-	1c	-nus	4e/	.
.	.	.	.	.	.	4d/	.
!LO:TX:t=P:problem:kreska pseudotaktowa	!	!	!	!	!	!	!
2C/	Sur-	.	.	.	.	1e\	.
.	.	4B-/	.	.	.	.	.
=9-	=9-	=9-	=9-	=9-	=9-	=9-	=9-
!	!	!LO:TX:t=P:problem:kreska pseudotaktowa	!	!	!	!	!
1.c	-re-	1A	.	2r	.	.	.
!	!	!	!	!	!	!LO:TX:t=P:problem:kreska pseudotaktowa	!
.	.	.	.	2c/	ſur-	2f\	-stor
!	!	!	!	!LO:TX:t=P:problem:kreska pseudotaktowa	!	!	!
.	.	2G,</	-nus	1d	-re-	1g	bo-
2BnX\	-xit	2G/	ſur-	.	.	.	.
=10-	=10-	=10-	=10-	=10-	=10-	=10-	=10-
*	*	*	*	*2\right	*	*	*
!	!	!	!	!	!	!LO:SIC:v:t=custos a	!
2c\	Pa-	2c/	-re-	2e\	-xit	2g,<\	-nus
!LO:TX:t=P:problem:kreska pseudotaktowa	!	!LO:TX:t=P:problem:kreska pseudotaktowa	!	!	!	!LO:TX:t=P:problem:kreska pseudotaktowa	!
!	!	!	!	!	!	!LO:LB:g=original	!
2c\	-stor	2A/	-xit	1f	Pa-	2a\	Sur-
1d	bo-	1B-	Pa-	.	.	2f\	-re-
.	.	.	.	4e\	.	2g\	-xit
!	!	!	!	!LO:TX:t=P:problem:kreska pseudotaktowa	!	!	!
.	.	.	.	4d\	.	.	.
=11-	=11-	=11-	=11-	=11-	=11-	=11-	=11-
!LO:TX:t=P:problem:kreska pseudotaktowa	!	!	!	!	!	!	!
1c	-nus	2A/	-stor	4e\	.	1.a	Pa-
*	*Xij	*	*	*	*	*	*
.	.	.	.	8d\L	.	.	.
.	.	.	.	8e\J	.	.	.
.	.	4F/	bo-	1f	.	.	.
!	!	!LO:TX:t=P:problem:kreska pseudotaktowa	!	!	!	!	!
.	.	4G/	.	.	.	.	.
2r	.	4A/	.	.	.	.	.
.	.	4B-/	.	.	.	.	.
!	!	!	!	!	!	!LO:TX:t=P:problem:kreska pseudotaktowa	!
2F/	qui	1c\	.	2f\	-stor	2a\	-stor
=12-	=12-	=12-	=12-	=12-	=12-	=12-	=12-
!	!	!	!	!LO:TX:t=P:problem:kreska pseudotaktowa	!	!	!
!	!	!	!	!LO:SIC:v:t=custos c	!	!	!
2G\	a-	.	.	1d	bo-	2.g\	bo-
!LO:TX:t=P:problem:kreska pseudotaktowa	!	!LO:TX:t=P:problem:kreska pseudotaktowa	!	!	!	!	!
2G\	-ni-	2B-/	.	.	.	.	.
.	.	.	.	.	.	4f\	.
!	!	!LO:TX:t=P:problem:kreska pseudotaktowa	!	!LO:LB:g=original	!	!	!
1A	-mam	1c	-nus	2c,</	-nus	1e	.
!	!	!	!	!LO:TX:t=P:problem:kreska pseudotaktowa	!	!	!
.	.	.	.	2c/	qui	.	.
=13-	=13-	=13-	=13-	=13-	=13-	=13-	=13-
2.B-y\	ſu-	00r	.	2d\	a-	2d,</	-nus
*	*	*	*	*	*	*	*Xij
!	!	!	!	!	!	!LO:TX:t=P:problem:kreska pseudotaktowa	!
.	.	.	.	2d\	-ni-	2f\	qui
!LO:TX:t=P:problem:kreska pseudotaktowa	!	!	!	!	!	!	!
4A\	.	.	.	.	.	.	.
!	!	!	!	!LO:TX:t=P:problem:kreska pseudotaktowa	!	!	!
1G	.	.	.	1e	-mam	2g\	a-
.	.	.	.	.	.	2g\	-ni-
=14-	=14-	=14-	=14-	=14-	=14-	=14-	=14-
!LO:TX:t=P:problem:kreska pseudotaktowa	!	!	!	!	!	!LO:TX:t=P:problem:kreska pseudotaktowa	!
1F	-am	.	.	2.f\	su-	1a	-mam
.	.	.	.	4e\	.	.	.
!	!	!	!	!LO:TX:t=P:problem:kreska pseudotaktowa	!	!	!
2r	.	.	.	1d	.	2.b-\	su-
*	*ij	*	*	*	*	*	*
!LO:SIC:v:t=custos C	!	!	!	!	!	!	!
2BB-/	qui	.	.	.	.	.	.
.	.	.	.	.	.	4a\	.
!LO:LB:g=original	!	!	!	!	!	!	!
=15-	=15-	=15-	=15-	=15-	=15-	=15-	=15-
2C/	a-	2r	.	2c,</	-am	1g	.
!LO:TX:t=P:problem:kreska pseudotaktowa	!	!LO:TX:t=P:problem:kreska pseudotaktowa	!	!LO:TX:t=P:problem:kreska pseudotaktowa	!	!	!
2E-X/	-ni-	2c/	qui	2G/	qui	.	.
!	!	!	!	!	!	!LO:TX:t=P:problem:kreska pseudotaktowa	!
1D	-mam	2d\	a-	2A/	a-	1f	-am
.	.	2d\	-ni-	2B-/	-ni-	.	.
=16-	=16-	=16-	=16-	=16-	=16-	=16-	=16-
*lig	*	*	*	*	*	*	*
!	!	!LO:TX:t=P:problem:kreska pseudotaktowa	!	!	!	!	!
!	!	!LO:SIC:v:t=custos f	!	!	!	!	!
1C	ſu-	1e	-mam	0c	-mam	1r	.
!	!	!LO:LB:g=original	!	!	!	!	!
1F	.	2.f\	ſu-	.	.	2.a\	po-
!	!	!	!	!	!	!LO:TX:t=P:problem:kreska pseudotaktowa	!
!	!	!LO:TX:t=P:problem:kreska pseudotaktowa	!	!	!	!LO:SIC:v:t=custos b	!
.	.	4e\	.	.	.	4a\	-su-
*Xlig	*	*	*	*	*	*	*
!	!	!	!	!	!	!LO:LB:g=original	!
=17-	=17-	=17-	=17-	=17-	=17-	=17-	=17-
!	!	!	!	!LO:TX:t=P:problem:kreska pseudotaktowa	!	!	!
2BB-,</	-am	1d	.	1B-	su-	2b-\	-it
*	*Xij	*	*	*	*	*	*
!	!	!	!	!	!	!LO:TX:t=P:problem:kreska pseudotaktowa	!
1B-	po-	.	.	.	.	2f\	pro
!	!	!LO:TX:t=P:problem:kreska pseudotaktowa	!	!	!	!	!
.	.	1c	-am	2G/	-am	2f\	o-
!LO:TX:t=P:problem:kreska pseudotaktowa	!	!	!	!	!	!	!
2A\	-su-	.	.	1f\	po-	2f\	-vi-
=18-	=18-	=18-	=18-	=18-	=18-	=18-	=18-
1G	-it	2.B-/	po-	.	.	1g	-bus
!	!	!	!	!LO:TX:t=P:problem:kreska pseudotaktowa	!	!	!
.	.	.	.	2e\	-su-	.	.
.	.	4B-/	-su-	.	.	.	.
!	!	!	!	!	!	!LO:TX:t=P:problem:kreska pseudotaktowa	!
1F	pro	2c/	-it	2f\	-it	1a	ſu-
!	!	!LO:TX:t=P:problem:kreska pseudotaktowa	!	!	!	!	!
.	.	2A/	pro	2f\	pro	.	.
=19-	=19-	=19-	=19-	=19-	=19-	=19-	=19-
!	!	!	!	!	!	!LO:TX:t=P:problem:kreska pseudotaktowa	!
2.G\	o-	2B-/	o-	2e\	o-	1g	-is
!	!	!	!	!LO:TX:t=P:problem:kreska pseudotaktowa	!	!	!
!	!	!	!	!LO:SIC:v:t=custos c	!	!	!
.	.	2B-/	-vi-	2d\	-vibus	.	.
4G\	-vi-	.	.	.	.	.	.
!	!	!	!	!LO:LB:g=original	!	!	!
1A	-bus	2A/	-bus	(1c	ſu-	1r	.
!	!	!LO:TX:t=P:problem:kreska pseudotaktowa:między nutą a kropką	!	!	!	!	!
.	.	2.c/	ſu-	.	.	.	.
=20-	=20-	=20-	=20-	=20-	=20-	=20-	=20-
!	!	!	!	!LO:TX:t=P:problem:kreska pseudotaktowa	!	!	!
1G	ſu-	.	.	1d)	.	2r	.
.	.	8B-/L	.	.	.	.	.
.	.	8A/J	.	.	.	.	.
.	.	2B-/	.	.	.	1g	et
!LO:TX:t=P:problem:kreska pseudotaktowa	!	!LO:TX:t=P:problem:kreska pseudotaktowa	!	!	!	!	!
0C	-is	1c	-is	2e,<\	-is	.	.
!	!	!	!	!	!	!LO:TX:t=P:problem:kreska pseudotaktowa	!
.	.	.	.	1c\	et	2g\	pro
=21-	=21-	=21-	=21-	=21-	=21-	=21-	=21-
!	!	!LO:TX:b:t=3	!	!	!	!	!
.	.	0r	.	.	.	2a\	gre-
!	!	!	!	!LO:TX:t=P:problem:kreska pseudotaktowa	!	!	!
.	.	.	.	2c/	pro	2.g\	-ge
2r	.	.	.	2B-/	gre-	.	.
.	.	.	.	.	.	4f\	.
1c\	et	.	.	2A/	-ge	1f\	ſu-
=22-	=22-	=22-	=22-	=22-	=22-	=22-	=22-
!	!	!LO:TX:t=P:problem:kreska pseudotaktowa	!	!	!	!	!
.	.	1r	.	1G	ſu-	.	.
!	!	!	!	!	!	!LO:TX:t=P:problem:kreska pseudotaktowa	!
2B-\	pro	.	.	.	.	2e/	.
!	!	!	!	!LO:TX:t=P:problem:kreska pseudotaktowa	!	!LO:TX:t=P:problem:kreska pseudotaktowa	!
2A\	gre-	2r	.	1F	-o	1f	-o
!LO:TX:t=P:problem:kreska pseudotaktowa	!	!	!	!	!	!	!
!LO:SIC:v:t=custos G	!	!	!	!	!	!	!
2F/	-ge	1f\	et	.	.	.	.
!LO:LB:g=original	!	!	!	!	!	!	!
=23-	=23-	=23-	=23-	=23-	=23-	=23-	=23-
*lig	*	*	*	*	*	*	*
1G	ſu-	.	.	00r	.	00r	.
!	!	!LO:TX:t=P:problem:kreska pseudotaktowa	!	!	!	!	!
.	.	2e\	pro	.	.	.	.
*col	*	*	*	*	*	*	*
2.F\	.	2d\	gre-	.	.	.	.
*Xlig	*	*	*	*	*	*	*
!	!	!LO:SIC:v:t=custos B	!	!	!	!	!
.	.	1c\	-ge	.	.	.	.
4Eny/	.	.	.	.	.	.	.
*Xcol	*	*	*	*	*	*	*
=24-	=24-	=24-	=24-	=24-	=24-	=24-	=24-
1D	.	.	.	.	.	.	.
!	!	!LO:TX:t=P:problem:kreska pseudotaktowa	!	!	!	!	!
!	!	!LO:LB:g=original	!	!	!	!	!
.	.	2B-/	ſu-	.	.	.	.
!LO:TX:t=P:problem:kreska pseudotaktowa	!	!	!	!	!	!	!
1C	-o	1c	-o	.	.	.	.
=25-	=25-	=25-	=25-	=25-	=25-	=25-	=25-
!	!	!LO:TX:t=P:problem:kreska pseudotaktowa	!	!	!	!LO:SIC:v:t=custos g	!
0F	mo-	0c	Mo-	0f	Mo-	0a	Mo-
!	!	!	!	!	!	!LO:LB:g=original	!
=26-	=26-	=26-	=26-	=26-	=26-	=26-	=26-
!	!	!LO:TX:t=P:problem:kreska pseudotaktowa	!	!LO:TX:t=P:problem:kreska pseudotaktowa	!	!LO:TX:t=P:problem:kreska pseudotaktowa	!
0C	-ri	0c	-ri	0e	-ri	0g	-ri
=27-	=27-	=27-	=27-	=27-	=27-	=27-	=27-
1D	dig-	1A	dig-	1d	di-	1f	di-
1.BB-	-na-	1.B-	-na-	1.d	-gna-	1.f	-gna-
=28-	=28-	=28-	=28-	=28-	=28-	=28-	=28-
.	.	.	.	.	.	.	.
!	!	!	!	!LO:TX:t=P:problem:kreska pseudotaktowa	!	!LO:TX:t=P:problem:kreska pseudotaktowa	!
2BB-/	-tus	2B-/	-tus	2d\	-tus	2f\	-tus
!LO:TX:t=P:problem:kreska pseudotaktowa	!	!LO:TX:t=P:problem:kreska pseudotaktowa	!	!	!	!	!
1C	eſt	1G	eſt	2c/	eſt	2e,</	eſt
!	!	!	!	!LO:TX:t=P:problem:kreska pseudotaktowa	!	!	!
.	.	.	.	2c/	al-	2e/	al-
=29-	=29-	=29-	=29-	=29-	=29-	=29-	=29-
1rF	.	2r	.	2d\	-le-	2f\	-le-
!	!	!	!	!	!	!LO:TX:t=P:problem:kreska pseudotaktowa	!
.	.	2d\	al-	2B-/	-lu-	2g\	-lu-
!	!	!	!	!LO:TX:t=P:problem:kreska pseudotaktowa	!	!	!
!	!	!	!	!LO:SIC:v:t=custos A	!	!	!
2rD	.	2c/	-le-	1A	-ia	2a,<\	-ia
!LO:TX:t=P:problem:kreska pseudotaktowa	!	!LO:TX:t=P:problem:kreska pseudotaktowa	!	!	!	!	!
*	*	*	*	*	*	*	*ij
2F/	al-	2A/	-lu-	.	.	2a\	al-
!	!	!	!	!LO:LB:g=original	!	!	!
=30-	=30-	=30-	=30-	=30-	=30-	=30-	=30-
!	!	!	!	!LO:TX:t=P:problem:kreska pseudotaktowa	!	!	!
2G\	-le-	2B-,</	-ia	1r	.	2g\	-le-
!LO:TX:t=P:problem:kreska pseudotaktowa	!	!LO:TX:t=P:problem:kreska pseudotaktowa	!	!	!	!LO:TX:t=P:problem:kreska pseudotaktowa	!
*	*	*	*ij	*	*	*	*
2A\	-lu-	2c/	al-	.	.	2e/	-lu-
2B-\	-ia	2d\	-le-	2r	.	4d/	.
.	.	.	.	.	.	4e/	.
*	*ij	*	*	*	*	*	*
!	!	!LO:TX:t=P:problem:kreska pseudotaktowa	!	!	!	!	!
1F\	al-	2c/	-lu-	2.A/	al-	4f\	.
.	.	.	.	.	.	4g\	.
=31-	=31-	=31-	=31-	=31-	=31-	=31-	=31-
.	.	2F,</	-ia	.	.	2a,<\	-ia
.	.	.	.	4B-/	.	.	.
!	!	!LO:TX:t=P:problem:kreska pseudotaktowa	!	!	!	!	!
2E/	-le-	2G/	al-	1c	-le-	2.g\	al-
*lig	*	*	*	*	*	*	*
1D	-lu-	2A/	-le-	.	.	.	.
.	.	.	.	.	.	4f\	-le-
!	!	!	!	!LO:TX:t=P:problem:kreska pseudotaktowa	!	!	!
!	!	!	!	!	!	!LO:SIC:v:t=custos e	!
.	.	4G/	.	2B-/	-lu-	1f\	-lu-
!	!	!LO:SIC:v:t=custos G	!	!	!	!	!
.	.	4F/	.	.	.	.	.
!	!	!LO:LB:g=original	!	!	!	!LO:LB:g=original	!
=32-	=32-	=32-	=32-	=32-	=32-	=32-	=32-
!LO:SIC:v:t=custos F	!	!	!	!LO:TX:t=P:problem:kreska pseudotaktowa	!	!	!
1C	.	1G	-lu-	0c	-ia	.	.
!	!	!	!	!	!	!LO:TX:t=P:problem:kreska pseudotaktowa	!
.	.	.	.	.	.	2e/	.
*Xlig	*	*	*	*	*	*	*
!LO:TX:t=P:problem:kreska pseudotaktowa	!	!LO:TX:t=P:problem:kreska pseudotaktowa	!	!	!	!LO:TX:t=P:problem:kreska pseudotaktowa	!
!LO:LB:g=original	!	!	!	!	!	!	!
1F	-ia	1F	-ia	.	.	1f	-ia
*	*Xij	*	*Xij	*	*	*	*Xij
=33-	=33-	=33-	=33-	=33-	=33-	=33-	=33-
1r	.	1rc	.	1r	.	1r	.
!	!	!LO:TX:t=P:problem:kreska pseudotaktowa	!	!	!	!	!
1C	et	1c	Et	1e	Et	1g	Et
=34-	=34-	=34-	=34-	=34-	=34-	=34-	=34-
!	!	!	!	!LO:TX:t=P:problem:kreska pseudotaktowa	!	!LO:TX:t=P:problem:kreska pseudotaktowa	!
0F	ſte-	0c	ſte-	0f	ſte-	0a	ſte-
=35-	=35-	=35-	=35-	=35-	=35-	=35-	=35-
!LO:TX:t=P:problem:kreska pseudotaktowa	!	!LO:TX:t=P:problem:kreska pseudotaktowa	!	!LO:TX:t=P:problem:kreska pseudotaktowa	!	!	!
1F	-tit	1c	-tit	1f	-tit	1a	-tit
!	!	!	!	!	!	!LO:TX:t=P:problem:kreska pseudotaktowa	!
1F	in	1c	in	1f	in	1a	in
=36-	=36-	=36-	=36-	=36-	=36-	=36-	=36-
1.B-	me-	1.d	me-	1.f	me-	1.b-	Me-
!LO:TX:t=P:problem:kreska pseudotaktowa	!	!LO:TX:t=P:problem:kreska pseudotaktowa	!	!LO:TX:t=P:problem:kreska pseudotaktowa	!	!LO:TX:t=P:problem:kreska pseudotaktowa	!
2B-\	-di-	2d\	-di-	2f\	-di-	2b-\	-di-
=37-	=37-	=37-	=37-	=37-	=37-	=37-	=37-
2F/	-o	2c/	-o	2f\	-o	2a\	-o
2F/	dis-	2c/	dis-	2a\	dis-	2f\	dis-
2G\	-ci-	2B-/	-ci-	2g\	-ci-	2b-\	-ci-
!LO:TX:t=P:problem:kreska pseudotaktowa	!	!LO:TX:t=P:problem:kreska pseudotaktowa	!	!LO:TX:t=P:problem:kreska pseudotaktowa	!	!LO:TX:t=P:problem:kreska pseudotaktowa	!
2G\	-pu-	2d\	-pu-	2g\	-pu-	2b-\	-pu-
=38-	=38-	=38-	=38-	=38-	=38-	=38-	=38-
1A	-lo-	1c	-lo-	1e	-lo-	1a	-lo-
!	!	!LO:TX:t=P:problem:kreska pseudotaktowa	!	!	!	!LO:TX:t=P:problem:kreska pseudotaktowa	!
1D	-rum	0d	-rum	1f	-rum	1a	-rum
=39-	=39-	=39-	=39-	=39-	=39-	=39-	=39-
*lig	*	*	*	*	*	*	*
1G	ſu-	.	.	2.g\	ſu-	2g\	ſu-
.	.	.	.	.	.	2.b-\	-o-
!	!	!	!	!LO:SIC:v:t=custos e	!	!	!
.	.	.	.	4f\	.	.	.
!LO:TX:t=P:problem:kreska pseudotaktowa	!	!	!	!LO:LB:g=original	!	!	!
1A	.	1c	ſu-	4e\	.	.	.
.	.	.	.	4d\	.	4a\	.
!	!	!	!	!LO:TX:t=P:problem:kreska pseudotaktowa:między nutą a kropką	!	!	!
.	.	.	.	2.f\	-o-	1a\	.
*Xlig	*	*	*	*	*	*	*
=40-	=40-	=40-	=40-	=40-	=40-	=40-	=40-
0B-	-o-	0d	-o-	.	.	.	.
.	.	.	.	4e\	.	.	.
!	!	!	!	!	!	!LO:PB:g=original	!
.	.	.	.	4d\	.	4g\	.
!	!	!	!	!	!	!LO:TX:t=P:problem:kreska pseudotaktowa	!
.	.	.	.	4c\	.	4f\	.
.	.	.	.	1d	.	1g	.
=41-	=41-	=41-	=41-	=41-	=41-	=41-	=41-
!LO:TX:t=P:problem:kreska pseudotaktowa	!	!LO:TX:t=P:problem:kreska pseudotaktowa	!	!	!	!	!
!LO:SIC:v:t=custos F	!	!LO:SIC:v:t=custos f	!	!LO:TX:t=P:problem:kreska pseudotaktowa	!	!LO:TX:t=P:problem:kreska pseudotaktowa	!
1A	-rum	1e	-rum	1c	-rum	0a	-rum
!LO:LB:g=original	!	!LO:LB:g=original	!	!	!	!	!
1.F	et	2.f\	et	0r	.	.	.
!	!	!LO:TX:t=P:problem:kreska pseudotaktowa	!	!	!	!	!
.	.	4e\	.	.	.	.	.
=42-	=42-	=42-	=42-	=42-	=42-	=42-	=42-
.	.	2d\	.	.	.	1r	.
!LO:TX:t=P:problem:kreska pseudotaktowa	!	!	!	!	!	!	!
2E/	.	2.c/	.	.	.	.	.
1D	di-	.	.	(1F	et	2r	.
.	.	8B-/L	.	.	.	.	.
.	.	8A/J	.	.	.	.	.
!	!	!LO:TX:t=P:problem:kreska pseudotaktowa	!	!	!	!	!
.	.	2B-/	.	.	.	1f\	et
=43-	=43-	=43-	=43-	=43-	=43-	=43-	=43-
!LO:TX:t=P:problem:kreska pseudotaktowa	!	!	!	!	!	!	!
1C	-xit	1c	di-	2G/)	.	.	.
!	!	!	!	!LO:TX:t=P:problem:kreska pseudotaktowa:między nutą a kropką	!	!LO:TX:t=P:problem:kreska pseudotaktowa	!
.	.	.	.	2.c/	di-	2e/	.
!	!	!LO:TX:t=P:problem:kreska pseudotaktowa	!	!	!	!	!
0r	.	1G	-xit	.	.	1d	di-
.	.	.	.	8B-/L	.	.	.
.	.	.	.	8A/J	.	.	.
!	!	!	!	!LO:TX:t=P:problem:kreska pseudotaktowa	!	!	!
.	.	.	.	2Bn/	.	.	.
=44-	=44-	=44-	=44-	=44-	=44-	=44-	=44-
!	!	!LO:TX:t=P:problem:kreska pseudotaktowa	!	!LO:TX:t=P:problem:kreska pseudotaktowa	!	!LO:TX:t=P:problem:kreska pseudotaktowa	!
.	.	0r	.	0c	-xit	0c	-xit
!LO:TX:t=P:problem:kreska pseudotaktowa	!	!	!	!	!	!	!
1r	.	.	.	.	.	.	.
=45-	=45-	=45-	=45-	=45-	=45-	=45-	=45-
*^	*	*	*	*	*	*	*
0c	0C	Pax	0G	Pax	0c	Pax	0e	Pax
=46-	=46-	=46-	=46-	=46-	=46-	=46-	=46-	=46-
0B-X	0BB-	Vo-	0B-	Vo-	0d	Vo-	0f	Vo-
=47-	=47-	=47-	=47-	=47-	=47-	=47-	=47-	=47-
!	!	!	!	!	!LO:TX:t=P:problem:kreska pseudotaktowa	!	!	!
0c	0C	-bis	0G	-bis	0c	-bis	0e	-bis
*v	*v	*	*	*	*	*	*	*
=48-	=48-	=48-	=48-	=48-	=48-	=48-	=48-
*M3/1	*	*M3/1	*	*M3/1	*	*M3/1	*
1F	ga-	1G	ga-	1c	ga-	1f	ga-
1C	-vi-	1c	-vi-	1e	-vi-	1g	-vi-
!	!	!	!	!LO:TX:t=P:problem:kreska pseudotaktowa	!	!	!
!LO:TX:t=P:problem:kreska pseudotaktowa	!	!LO:TX:t=P:problem:kreska pseudotaktowa	!	!LO:SIC:v:t=custos e	!	!LO:TX:t=P:problem:kreska pseudotaktowa	!
1F	-ſi	1c	-ſi	1f	-ſi	1a	-ſi
!	!	!	!	!LO:LB:g=original	!	!	!
=49-	=49-	=49-	=49-	=49-	=49-	=49-	=49-
0G	ſunt	0B-	ſunt	0e	ſunt	0g	ſunt
!LO:TX:t=P:problem:kreska pseudotaktowa	!	!LO:TX:t=P:problem:kreska pseudotaktowa	!	!LO:TX:t=P:problem:kreska pseudotaktowa	!	!LO:SIC:v:t=custos b	!
1F	di-	1c	di-	1f	di-	1a	di-
!	!	!	!	!	!	!LO:LB:g=original	!
=50-	=50-	=50-	=50-	=50-	=50-	=50-	=50-
0B-	sci-	0d	sci-	0f	sci-	0b-	sci-
!	!	!LO:SIC:v:t=custos c	!	!	!	!	!
!LO:TX:t=P:problem:kreska pseudotaktowa	!	!LO:TX:t=P:problem:kreska pseudotaktowa	!	!LO:TX:t=P:problem:kreska pseudotaktowa	!	!LO:TX:t=P:problem:kreska pseudotaktowa	!
1B-	-pu-	1d	-pu-	1f	-pu-	1b-	-pu-
!	!	!LO:LB:g=original	!	!	!	!	!
=51-	=51-	=51-	=51-	=51-	=51-	=51-	=51-
!LO:SIC:v:t=custos F	!	!	!	!	!	!	!
!LO:TX:t=P:problem:kreska pseudotaktowa	!	!LO:TX:t=P:problem:kreska pseudotaktowa	!	!LO:TX:t=P:problem:kreska pseudotaktowa	!	!LO:TX:t=P:problem:kreska pseudotaktowa	!
0.F	-li	0.c	-li	0.f	-li	0.a	-li
!LO:LB:g=original	!	!	!	!	!	!	!
=52-	=52-	=52-	=52-	=52-	=52-	=52-	=52-
*	*ij	*	*ij	*	*ij	*	*ij
1F	ga-	1c	ga-	1f	ga-	1a	ga-
1B-	-vi-	1d	-vi-	1f	-vi-	1b-	-vi-
!LO:TX:t=P:problem:kreska pseudotaktowa	!	!LO:TX:t=P:problem:kreska pseudotaktowa	!	!LO:TX:t=P:problem:kreska pseudotaktowa	!	!LO:TX:t=P:problem:kreska pseudotaktowa	!
1G	-ſi	1d	-ſi	1g	-ſi	1b-	-ſi
=53-	=53-	=53-	=53-	=53-	=53-	=53-	=53-
0A	ſunt	0c	ſunt	0e	ſunt	0a	ſunt
!LO:TX:t=P:problem:kreska pseudotaktowa	!	!LO:TX:t=P:problem:kreska pseudotaktowa	!	!LO:TX:t=P:problem:kreska pseudotaktowa	!	!LO:TX:t=P:problem:kreska pseudotaktowa	!
1F	di-	1c	di-	1f	di-	1a	di-
=54-	=54-	=54-	=54-	=54-	=54-	=54-	=54-
0G	-sci-	0B-	-sci-	0d	-sci-	0g	-sci-
!	!	!LO:TX:t=P:problem:kreska pseudotaktowa	!	!	!	!	!
1G	-pu-	1B-	-pu-	1e	-pu-	1g	-pu-
=55-	=55-	=55-	=55-	=55-	=55-	=55-	=55-
*M2/1	*	*M2/1	*	*M2/1	*	*M2/1	*
*met(C|)	*	*met(C|)	*	*met(C|)	*	*met(C|)	*
!	!	!LO:TX:t=P:problem:kreska pseudotaktowa	!	!	!	!	!
1F,<	-li	1c,<	-li	1f,<	-li	2a,<\	-li
*	*Xij	*	*Xij	*	*Xij	*	*Xij
.	.	.	.	.	.	1a	Vi-
!LO:TX:t=P:problem:kreska pseudotaktowa	!	!	!	!	!	!	!
*	*	*	*	*lig	*	*	*
1C	Vi-	0c	Vi-	1e	Vi-	.	.
!	!	!	!	!	!	!LO:TX:t=P:problem:kreska pseudotaktowa	!
.	.	.	.	.	.	2g\	-ſo
=56-	=56-	=56-	=56-	=56-	=56-	=56-	=56-
*lig	*	*	*	*	*	*lig	*
!	!	!	!	!LO:TX:t=P:problem:kreska pseudotaktowa	!	!	!
1F	-so	.	.	1f	.	1a	Do-
*	*	*	*	*Xlig	*	*	*
*	*	*	*	*	*	*col	*
!	!	!LO:TX:t=P:problem:kreska pseudotaktowa	!	!	!	!	!
1G	.	1B-	ſo	2.d\	-so	2.b-\	.
*	*	*	*	*	*	*Xlig	*
.	.	.	.	4e\	.	4b-\	-mi-
*Xlig	*	*	*	*	*	*Xcol	*
=57-	=57-	=57-	=57-	=57-	=57-	=57-	=57-
!	!	!	!	!	!	!LO:SIC:v:t=custos f	!
1.A	Do-	2c/	Do-	1f	.	0.a	-no
.	.	1d	.	.	.	.	.
.	.	.	.	2.e\	Do-	.	.
!	!	!LO:TX:t=P:problem:kreska pseudotaktowa	!	!	!	!	!
2A\	-mi-	2c/	-mi-	.	.	.	.
!	!	!	!	!LO:TX:t=P:problem:kreska pseudotaktowa	!	!	!
!	!	!	!	!LO:SIC:v:t=custos f	!	!	!
.	.	.	.	4e\	-mi-	.	.
!	!	!	!	!LO:LB:g=original	!	!	!
=58-	=58-	=58-	=58-	=58-	=58-	=58-	=58-
!LO:TX:t=P:problem:kreska pseudotaktowa	!	!	!	!	!	!	!
0D	-no	0d,<	-no	2f\	-no	.	.
!	!	!	!	!LO:TX:t=P:problem:kreska pseudotaktowa	!	!	!
.	.	.	.	2f\	al-	.	.
!	!	!	!	!	!	!LO:LB:g=original	!
.	.	.	.	2d\	-le-	2r	.
!	!	!	!	!	!	!LO:TX:t=P:problem:kreska pseudotaktowa	!
.	.	.	.	1f\	-lu-	2f\	al-
=59-	=59-	=59-	=59-	=59-	=59-	=59-	=59-
!	!	!LO:TX:t=P:problem:kreska pseudotaktowa	!	!	!	!	!
1r	.	1c	al-	.	.	2g\	-le-
!	!	!	!	!LO:TX:t=P:problem:kreska pseudotaktowa	!	!	!
.	.	.	.	2e\	.	2g\	-lu-
!	!	!	!	!LO:TX:t=P:problem:kreska pseudotaktowa	!	!LO:TX:t=P:problem:kreska pseudotaktowa	!
1F	al-	2A/	-le-	1f	-ia	1a	-ia
!	!	!LO:SIC:v:t=custos B	!	!	!	!	!
.	.	1c\	-lu-	.	.	.	.
=60-	=60-	=60-	=60-	=60-	=60-	=60-	=60-
2E/	-le-	.	.	1r	.	2r	.
*	*	*	*	*	*	*	*ij
!	!	!LO:TX:t=P:problem:kreska pseudotaktowa	!	!	!	!	!
!	!	!LO:LB:g=original	!	!	!	!	!
2D/	-lu-	2B-/	-ia	.	.	2f\	al-
*	*	*	*ij	*	*	*	*
!LO:SIC:v:t=custos c	!	!	!	!	!	!	!
!LO:TX:t=P:problem:kreska pseudotaktowa	!	!	!	!	!	!	!
1C	-ia	2c/	al-	2r	.	2f\	-le-
!	!	!	!	!LO:TX:t=P:problem:kreska pseudotaktowa	!	!LO:TX:t=P:problem:kreska pseudotaktowa	!
*	*	*	*	*	*ij	*	*
.	.	2G/	-le-	2c/	al-	2e/	-lu-
!LO:LB:g=original	!	!	!	!	!	!	!
=61-	=61-	=61-	=61-	=61-	=61-	=61-	=61-
!LO:TX:t=P:problem:kreska pseudotaktowa	!	!	!	!	!	!	!
0r	.	2d\	.	2B-y/	-le-	2f,<\	-ia
.	.	1f	-lu-	2A/	-lu-	2a\	al-
.	.	.	.	1G	.	2b-\	-le-
!	!	!LO:TX:t=P:problem:kreska pseudotaktowa	!	!	!	!LO:TX:t=P:problem:kreska pseudotaktowa	!
.	.	2e\	.	.	.	2g\	-lu-
=62-	=62-	=62-	=62-	=62-	=62-	=62-	=62-
*	*ij	*	*	*	*	*	*
!	!	!	!	!LO:TX:t=P:problem:kreska pseudotaktowa	!	!	!
2.c\	al-	2f\	-ia	1F	-ia	2a,<\	-ia
*	*	*	*	*	*Xij	*	*
.	.	1c	al-	.	.	2a\	al-
4B-\	.	.	.	.	.	.	.
!	!	!	!	!LO:TX:t=P:problem:kreska pseudotaktowa	!	!	!
2A\	-le-	.	.	1r	.	2f\	-le-
!	!	!LO:TX:t=P:problem:kreska pseudotaktowa	!	!	!	!LO:TX:t=P:problem:kreska pseudotaktowa	!
2G\	.	2B-/	-le-	.	.	2g\	-lu-
=63-	=63-	=63-	=63-	=63-	=63-	=63-	=63-
!LO:TX:t=P:problem:kreska pseudotaktowa	!	!	!	!	!	!	!
*	*	*lig	*	*	*	*	*
1F	-lu-	1A	-lu-	1c	al-	2a\	-ia
.	.	.	.	.	.	2f\	al-
!	!	!	!	!	!	!LO:SIC:v:t=custos e	!
1C	-ia	1G	.	2c/	-le-	2f\	-le-
!	!	!	!	!	!	!LO:TX:t=P:problem:kreska pseudotaktowa	!
!	!	!	!	!	!	!LO:LB:g=original	!
.	.	.	.	2c/	-lu-	2e/	-lu-
!	!	!	!	!LO:TX:t=P:problem:kreska pseudotaktowa	!	!	!
*	*	*Xlig	*	*	*	*	*
=64-	=64-	=64-	=64-	=64-	=64-	=64-	=64-
!	!	!	!	!	!	!LO:TX:t=P:problem:kreska pseudotaktowa	!
2.c\	al-	2F,</	-ia	4A/	-ia	1f	-ia
*	*	*	*	*	*	*	*Xij
.	.	.	.	4B-/	.	.	.
.	.	1A	al-	4c/	.	.	.
!LO:TX:t=P:problem:kreska pseudotaktowa	!	!	!	!	!	!	!
4B-\	.	.	.	4d/	.	.	.
2A\	-le-	.	.	4e\	.	2r	.
.	.	.	.	4c\	.	.	.
!	!	!LO:TX:t=P:problem:kreska pseudotaktowa	!	!	!	!	!
2G\	.	2B-/	-le-	4d\	.	2g\	al-
.	.	.	.	4e\	.	.	.
=65-	=65-	=65-	=65-	=65-	=65-	=65-	=65-
!	!	!LO:TX:t=P:problem:kreska pseudotaktowa	!	!LO:TX:t=P:problem:kreska pseudotaktowa	!	!	!
1F	-lu-	0c	-lu-	4f\	.	2.a\	-le-
.	.	.	.	4c/	.	.	.
*	*	*	*	*	*ij	*	*
.	.	.	.	1f	al-	.	.
.	.	.	.	.	.	8g\L	.
!	!	!	!	!	!	!LO:TX:t=P:problem:kreska pseudotaktowa	!
.	.	.	.	.	.	8f\J	.
!LO:TX:t=P:problem:kreska pseudotaktowa	!	!	!	!	!	!	!
1C	-ia	.	.	.	.	2g\	.
.	.	.	.	2e\	-le-	2g\	-lu-
=66-	=66-	=66-	=66-	=66-	=66-	=66-	=66-
1.F	al-	2c/	-ia	0f	-lu-	2a\	-ia
*	*	*	*	*	*	*	*ij
!	!	!	!	!	!	!LO:TX:t=P:problem:kreska pseudotaktowa	!
.	.	1c	al-	.	.	2f\	al-
.	.	.	.	.	.	1a	-le-
2F/	-le-	2c/	-le-	.	.	.	.
=67-	=67-	=67-	=67-	=67-	=67-	=67-	=67-
0BB-	-lu-	0d	-lu-	[0fl;;	-ia	0b-	-lu-
=68-	=68-	=68-	=68-	=68-	=68-	=68-	=68-
0Fl;;	-ia	0cl;;	-ia	0f]	.	0al;<	-ia
*	*Xij	*	*Xij	*	*Xij	*	*Xij
==	==	==	==	==	==	==	==
*-	*-	*-	*-	*-	*-	*-	*-
!!!system-decoration: [g1]
!!!RDF**kern: > = above
!!!RDF**kern: < = below
!!!RDF**kern: l = terminal long
!!!ENC: Andrzej Kubiczek
!!!END: 2021-03-27
!!!ENC: Tomasz Grochalski
!!!END: 2021-03-21
